static/assets/images/tokens/lisusd.svg

<svg width="256" height="256" viewBox="0 0 256 256" fill="none" xmlns="http://www.w3.org/2000/svg">
<path d="M128 256C198.934 256 256 198.934 256 128C256 57.0662 198.934 0 128 0C57.0662 0 0 57.0662 0 128C0 198.934 57.0662 256 128 256Z" fill="#1C1C8C"/>
<path fill-rule="evenodd" clip-rule="evenodd" d="M118.709 31.6411C79.5185 37.1171 53.2254 74.6218 61.5372 113.191C66.6173 136.762 82.7957 154.844 106.349 163.274C111.587 165.15 111.875 165.359 119.392 172.747C128.871 182.063 126.705 182.441 140.011 169.156C151.148 158.035 151.137 158.051 150.295 155.907C149.842 154.753 130.982 135.747 129.555 135.007C127.395 133.885 126.672 134.281 121.365 139.492C114.801 145.936 114.051 146.067 106.272 142.136C73.0075 125.323 70.2294 79.2757 101.232 58.6008C130.816 38.8717 170.949 57.0349 175.896 92.3924C176.785 98.7422 176.951 98.8463 186.238 98.8463C196.11 98.8463 196.543 98.3671 195.173 88.9636C189.858 52.4913 155.237 26.5366 118.709 31.6411ZM125.811 77.1621C122.884 79.326 105.613 97.1616 105.417 98.2226C105.07 100.102 105.557 100.704 115.606 110.811C128.729 124.009 127.388 123.603 134.577 116.548C141.2 110.049 141.698 109.979 150.25 114.335C180.576 129.783 185.397 172.359 159.281 194.094C129.845 218.592 85.506 201.656 79.9841 163.805C79.0341 157.29 78.9537 157.239 69.6345 157.239C59.763 157.239 59.3296 157.718 60.6998 167.122C68.6684 221.806 135.822 244.32 175.432 205.587C211.757 170.066 198.013 110.153 149.564 92.8241C144.287 90.9368 143.943 90.6895 136.751 83.6188C128.459 75.4662 128.261 75.3496 125.811 77.1621Z" fill="#F8F8FA"/>
</svg>

<svg xmlns="http://www.w3.org/2000/svg" fill="none" viewBox="0 0 256 256"><path fill="#1C1C8C" d="M128 256c70.934 0 128-57.066 128-128S198.934 0 128 0 0 57.066 0 128s57.066 128 128 128"/><path fill="#F8F8FA" fill-rule="evenodd" d="M118.709 31.641c-39.19 5.476-65.484 42.98-57.172 81.55 5.08 23.571 21.259 41.653 44.812 50.083 5.238 1.876 5.526 2.085 13.043 9.473 9.479 9.316 7.313 9.694 20.619-3.591 11.137-11.121 11.126-11.105 10.284-13.249-.453-1.154-19.313-20.16-20.74-20.9-2.16-1.122-2.883-.726-8.19 4.485-6.564 6.444-7.314 6.575-15.093 2.644-33.265-16.813-36.043-62.86-5.04-83.535 29.584-19.73 69.717-1.566 74.664 33.791.889 6.35 1.055 6.454 10.342 6.454 9.872 0 10.305-.479 8.935-9.882-5.315-36.473-39.936-62.427-76.464-57.323m7.102 45.521c-2.927 2.164-20.198 20-20.394 21.06-.347 1.88.14 2.482 10.189 12.589 13.123 13.198 11.782 12.792 18.971 5.737 6.623-6.499 7.121-6.569 15.673-2.213 30.326 15.448 35.147 58.024 9.031 79.759-29.436 24.498-73.775 7.562-79.297-30.289-.95-6.515-1.03-6.566-10.35-6.566-9.871 0-10.304.479-8.934 9.883 7.968 54.684 75.122 77.198 114.732 38.465 36.325-35.521 22.581-95.434-25.868-112.763-5.277-1.887-5.621-2.135-12.813-9.205-8.292-8.153-8.49-8.27-10.94-6.457" clip-rule="evenodd"/></svg>
